svgs/regular/paragraph.svg

<svg xmlns="http://www.w3.org/2000/svg" viewBox="0 0 448 512"><!--! Font Awesome Pro 6.6.0 by @fontawesome - https://fontawesome.com License - https://fontawesome.com/license (Commercial License) Copyright 2024 Fonticons, Inc. --><path d="M32 192c0-88.4 71.6-160 160-160l64 0 168 0c13.3 0 24 10.7 24 24s-10.7 24-24 24l-40 0 0 376c0 13.3-10.7 24-24 24s-24-10.7-24-24l0-376-48 0 0 376c0 13.3-10.7 24-24 24s-24-10.7-24-24l0-104-48 0c-88.4 0-160-71.6-160-160zM240 304l0-224-48 0C130.1 80 80 130.1 80 192s50.1 112 112 112l48 0z"/></svg>

<svg xmlns="http://www.w3.org/2000/svg" viewBox="0 0 448 512"><!--! Font Awesome Pro 6.4.0 by @fontawesome - https://fontawesome.com License - https://fontawesome.com/license (Commercial License) Copyright 2023 Fonticons, Inc. --><path d="M32 192c0-88.4 71.6-160 160-160h64H424c13.3 0 24 10.7 24 24s-10.7 24-24 24H384l0 376c0 13.3-10.7 24-24 24s-24-10.7-24-24l0-376H288V456c0 13.3-10.7 24-24 24s-24-10.7-24-24V352H192c-88.4 0-160-71.6-160-160zM240 304V80H192C130.1 80 80 130.1 80 192s50.1 112 112 112h48z"/></svg>
